resources/assets/icons/brands/tiktok.svg

<svg viewBox="0 0 20 20" fill="none" xmlns="http://www.w3.org/2000/svg">
<path d="M17.9975 8.28248C17.8543 8.29677 17.7105 8.30426 17.5666 8.30492C16.7896 8.30503 16.0248 8.10645 15.3412 7.7271C14.6576 7.34775 14.0768 6.79957 13.6512 6.13204V13.5312C13.6512 14.6129 13.3389 15.6702 12.7537 16.5695C12.1685 17.4689 11.3368 18.1698 10.3636 18.5837C9.3905 18.9976 8.3197 19.1059 7.28663 18.8949C6.25357 18.6839 5.30463 18.1631 4.55983 17.3982C3.81504 16.6334 3.30782 15.659 3.10233 14.5981C2.89684 13.5373 3.00231 12.4377 3.40539 11.4384C3.80847 10.4392 4.49107 9.58506 5.36686 8.98415C6.24265 8.38323 7.2723 8.06249 8.32561 8.06249C8.43678 8.06249 8.54545 8.07276 8.65475 8.07981V10.7747C8.54545 10.7613 8.43803 10.7408 8.32561 10.7408C7.60473 10.7408 6.91337 11.0348 6.40364 11.5583C5.8939 12.0817 5.60753 12.7916 5.60753 13.5319C5.60753 14.2721 5.8939 14.9821 6.40364 15.5055C6.91337 16.029 7.60473 16.323 8.32561 16.323C9.82704 16.323 11.153 15.1083 11.153 13.5665L11.1792 1H13.6899C13.8046 2.12023 14.2992 3.16341 15.087 3.94714C15.8749 4.73087 16.906 5.20527 18 5.28739V8.28248" stroke="#007DFF" stroke-width="2" stroke-linecap="round" stroke-linejoin="round"/>
</svg>

<svg viewBox="0 0 20 20" fill="none" xmlns="http://www.w3.org/2000/svg"><path d="M17.997 8.282a4.583 4.583 0 01-2.656-.555 4.728 4.728 0 01-1.69-1.595v7.4a5.574 5.574 0 01-.897 3.038c-.585.899-1.417 1.6-2.39 2.014a5.196 5.196 0 01-3.077.31 5.283 5.283 0 01-2.727-1.496 5.516 5.516 0 01-1.458-2.8c-.205-1.06-.1-2.16.303-3.16a5.44 5.44 0 011.962-2.454 5.227 5.227 0 012.959-.922c.11 0 .22.01.329.018v2.695c-.11-.014-.217-.034-.33-.034-.72 0-1.412.294-1.921.817a2.83 2.83 0 00-.796 1.974c0 .74.286 1.45.796 1.973.51.524 1.2.818 1.922.818 1.501 0 2.827-1.215 2.827-2.757L11.179 1h2.51a4.854 4.854 0 001.398 2.947A4.622 4.622 0 0018 5.287v2.995" stroke="#007DFF" stroke-width="2" stroke-linecap="round" stroke-linejoin="round"/></svg>
